src/images/avatars/avatar-15.svg

<svg fill="none" height="88" viewBox="0 0 64 88" width="64" xmlns="http://www.w3.org/2000/svg"><path d="m54.3866 17.0255c1.8-8.10003-9.2-16.500046-17.9999-10.60004-2.5-7.50001-17-7.400009-19.1 1.40001-7.70001-2.10001-15.59998 6.50003-12.59999 16.50003-5.299994 5.6-5.099993 12.6 2 18.5-1.4 6.4 6.69999 16.7 14.09999 16.2 6.4-.4 18.7-.6 24-.9 9.8-.5 16.6-11.8 12.8-18.1 7.9-3.5 7.3999-20.6-3.2001-23z" fill="#5c5c5c" stroke="#4d4d4d" stroke-linejoin="round" stroke-miterlimit="10" stroke-width="1.993"/><path d="m35.7869 68.5255v-14.5h-7.5v14.4c0 1.1-.9 2-2 2h-1.7c0 3.4 3.3 9.6 7.4 9.6s7.3999-6.2 7.3999-9.6h-1.5999c-1.1.1-2-.8-2-1.9z" fill="#8e6c57" stroke="#4d4d4d" stroke-linejoin="round" stroke-miterlimit="10" stroke-width="1.993"/><path d="m35.6869 68.3256c-1.7 0-7.5-3.1001-7.5-3.8001.1-1.5-.1-.9-.1-.9l7.6.2c.1 0 .2 4.4001 0 4.5001z" fill="#6b5141" opacity=".5"/><path d="m13.2867 48.3254c2.154 0 3.9001-1.7461 3.9001-3.9s-1.7461-3.8999-3.9001-3.8999c-2.1539 0-3.89998 1.746-3.89998 3.8999s1.74608 3.9 3.89998 3.9z" fill="#8e6c57" stroke="#4d4d4d" stroke-linejoin="round" stroke-miterlimit="10" stroke-width="1.993"/><path d="m50.5865 48.3254c2.154 0 3.9001-1.7461 3.9001-3.9s-1.7461-3.8999-3.9001-3.8999c-2.1539 0-3.9 1.746-3.9 3.8999s1.7461 3.9 3.9 3.9z" fill="#8e6c57" stroke="#4d4d4d" stroke-linejoin="round" stroke-miterlimit="10" stroke-width="1.993"/><path d="m13.2866 44.7254c.1 9.2 8.0001 18.8 18.2001 19.1 10.5.3 19.2-8.2 19.2-18.7l-.1999-11.6c-4.3001 1.7-9.3002-1.2-11.1002-4.8-5.7 4.5-12.0999 2.7-15.3999-.9-2.2 5.8-5.9 8.9-9.9 9.1-.5 2-.8001 4.7-.8001 7.8z" fill="#8e6c57" stroke="#4d4d4d" stroke-linejoin="round" stroke-miterlimit="10" stroke-width="1.993"/><path d="m23.0869 44.2254c.8284 0 1.5-.6715 1.5-1.4999s-.6716-1.5-1.5-1.5-1.5.6716-1.5 1.5.6716 1.4999 1.5 1.4999z" fill="#4d4d4d"/><path d="m40.7869 44.2254c.8284 0 1.5-.6715 1.5-1.4999s-.6716-1.5-1.5-1.5-1.5.6716-1.5 1.5.6716 1.4999 1.5 1.4999z" fill="#4d4d4d"/><g stroke="#4d4d4d" stroke-linejoin="round" stroke-miterlimit="10" stroke-width="1.993"><path d="m30.4868 45.0255v1.6c0 .7.5999 1.3 1.2999 1.3h1.6" stroke-linecap="round"/><path d="m30.1865 55.3254c1.2.4001 2.4.4001 3.6 0" stroke-linecap="round"/><path d="m52.1866 77.8254c0-4.3999-3.6-7.9999-8-7.9999h-5.1999s-1.9001 9.2999-7.2001 9.2999c-5.3001 0-7.2-9.2999-7.2-9.2999h-4.9001c-4.4 0-8 3.6-8 7.9999v1.3c5.3 4.8 12.4 7.8 20.1001 7.8 7.8 0 15.0001-3 20.3001-8v-1.1z" fill="#b344e3"/><path d="m18.0869 80.8254v2.4001" stroke-linecap="round"/><path d="m45.9868 80.8254v2.4001" stroke-linecap="round"/></g></svg>

<svg width="64" height="88" viewBox="0 0 64 88" fill="none" xmlns="http://www.w3.org/2000/svg">
<path d="M54.3866 17.0255C56.1866 8.92547 45.1866 0.525454 36.3867 6.42546C33.8867 -1.07455 19.3867 -0.974549 17.2867 7.82547C9.58669 5.72546 1.68672 14.3255 4.68671 24.3255C-0.613284 29.9255 -0.413283 36.9255 6.68671 42.8255C5.28671 49.2255 13.3867 59.5255 20.7867 59.0255C27.1867 58.6255 39.4867 58.4255 44.7867 58.1255C54.5867 57.6255 61.3867 46.3255 57.5867 40.0255C65.4867 36.5255 64.9866 19.4255 54.3866 17.0255Z" fill="#5C5C5C" stroke="#4D4D4D" stroke-width="1.993" stroke-miterlimit="10" stroke-linejoin="round"/>
<path d="M35.7869 68.5255V54.0255H28.2869V68.4255C28.2869 69.5255 27.3869 70.4255 26.2869 70.4255H24.5869C24.5869 73.8255 27.8869 80.0255 31.9869 80.0255C36.0869 80.0255 39.3868 73.8255 39.3868 70.4255H37.7869C36.6869 70.5255 35.7869 69.6255 35.7869 68.5255Z" fill="#8E6C57" stroke="#4D4D4D" stroke-width="1.993" stroke-miterlimit="10" stroke-linejoin="round"/>
<path opacity="0.5" d="M35.6869 68.3256C33.9869 68.3256 28.1869 65.2255 28.1869 64.5255C28.2869 63.0255 28.0869 63.6255 28.0869 63.6255L35.6869 63.8255C35.7869 63.8255 35.8869 68.2256 35.6869 68.3256Z" fill="#6B5141"/>
<path d="M13.2867 48.3254C15.4407 48.3254 17.1868 46.5793 17.1868 44.4254C17.1868 42.2715 15.4407 40.5255 13.2867 40.5255C11.1328 40.5255 9.38672 42.2715 9.38672 44.4254C9.38672 46.5793 11.1328 48.3254 13.2867 48.3254Z" fill="#8E6C57" stroke="#4D4D4D" stroke-width="1.993" stroke-miterlimit="10" stroke-linejoin="round"/>
<path d="M50.5865 48.3254C52.7405 48.3254 54.4866 46.5793 54.4866 44.4254C54.4866 42.2715 52.7405 40.5255 50.5865 40.5255C48.4326 40.5255 46.6865 42.2715 46.6865 44.4254C46.6865 46.5793 48.4326 48.3254 50.5865 48.3254Z" fill="#8E6C57" stroke="#4D4D4D" stroke-width="1.993" stroke-miterlimit="10" stroke-linejoin="round"/>
<path d="M13.2866 44.7254C13.3866 53.9254 21.2867 63.5254 31.4867 63.8254C41.9867 64.1254 50.6867 55.6254 50.6867 45.1254L50.4868 33.5254C46.1867 35.2254 41.1866 32.3254 39.3866 28.7254C33.6866 33.2254 27.2867 31.4254 23.9867 27.8254C21.7867 33.6254 18.0867 36.7254 14.0867 36.9254C13.5867 38.9254 13.2866 41.6254 13.2866 44.7254Z" fill="#8E6C57" stroke="#4D4D4D" stroke-width="1.993" stroke-miterlimit="10" stroke-linejoin="round"/>
<path d="M23.0869 44.2254C23.9153 44.2254 24.5869 43.5539 24.5869 42.7255C24.5869 41.8971 23.9153 41.2255 23.0869 41.2255C22.2585 41.2255 21.5869 41.8971 21.5869 42.7255C21.5869 43.5539 22.2585 44.2254 23.0869 44.2254Z" fill="#4D4D4D"/>
<path d="M40.7869 44.2254C41.6153 44.2254 42.2869 43.5539 42.2869 42.7255C42.2869 41.8971 41.6153 41.2255 40.7869 41.2255C39.9585 41.2255 39.2869 41.8971 39.2869 42.7255C39.2869 43.5539 39.9585 44.2254 40.7869 44.2254Z" fill="#4D4D4D"/>
<path d="M30.4868 45.0255V46.6255C30.4868 47.3255 31.0867 47.9255 31.7867 47.9255H33.3867" stroke="#4D4D4D" stroke-width="1.993" stroke-miterlimit="10" stroke-linecap="round" stroke-linejoin="round"/>
<path d="M30.1865 55.3254C31.3865 55.7255 32.5865 55.7255 33.7865 55.3254" stroke="#4D4D4D" stroke-width="1.993" stroke-miterlimit="10" stroke-linecap="round" stroke-linejoin="round"/>
<path d="M52.1866 77.8254C52.1866 73.4255 48.5866 69.8255 44.1866 69.8255H38.9867C38.9867 69.8255 37.0866 79.1254 31.7866 79.1254C26.4865 79.1254 24.5866 69.8255 24.5866 69.8255H19.6865C15.2865 69.8255 11.6865 73.4255 11.6865 77.8254V79.1254C16.9865 83.9254 24.0865 86.9254 31.7866 86.9254C39.5866 86.9254 46.7867 83.9254 52.0867 78.9254V77.8254H52.1866Z" fill="#B344E3" stroke="#4D4D4D" stroke-width="1.993" stroke-miterlimit="10" stroke-linejoin="round"/>
<path d="M18.0869 80.8254V83.2255" stroke="#4D4D4D" stroke-width="1.993" stroke-miterlimit="10" stroke-linecap="round" stroke-linejoin="round"/>
<path d="M45.9868 80.8254V83.2255" stroke="#4D4D4D" stroke-width="1.993" stroke-miterlimit="10" stroke-linecap="round" stroke-linejoin="round"/>
</svg>
